%
(Header)
(Generated by gcodetools from Inkscape.)
(Using default header. To add your own header create file "header" in the output dir.)
M3
(Header end.)
G21 (All units in mm)

(Start cutting path id: path7241-3)
(Change tool to Cylindrical cutter)

G00 Z5.000000
G00 X5.745545 Y39.432927

G01 Z-0.200000 F100.0(Penetrate)
G02 X7.372329 Y44.942199 Z-0.200000 I9.877467 J0.078187 F400.000000
G02 X11.789508 Y48.614669 Z-0.200000 I8.250684 J-5.431085
G02 X17.503184 Y49.208300 Z-0.200000 I3.833504 J-9.103555
G02 X22.580983 Y46.522327 Z-0.200000 I-1.880172 J-9.697186
G02 X25.305585 Y41.465150 Z-0.200000 I-6.957970 J-7.011214
G02 X24.755525 Y35.747114 Z-0.200000 I-9.682573 J-1.954037
G02 X21.116835 Y31.302069 Z-0.200000 I-9.132513 J3.763998
G02 X15.620124 Y29.633336 Z-0.200000 I-5.493822 J8.209043
G00 Z5.000000

(End cutting path id: path7241-3)


(Start cutting path id: path7241)
(Change tool to Cylindrical cutter)

G00 Z5.000000
G00 X29.633328 Y15.522229

G01 Z-0.200000 F100.0(Penetrate)
G02 X27.247127 Y7.670486 Z-0.200000 I-14.111109 J0.000004 F400.000000
G02 X20.895545 Y2.474215 Z-0.200000 I-11.724908 J7.851747
G02 X12.726694 Y1.690805 Z-0.200000 I-5.373324 J13.048019
G02 X5.503294 Y5.585207 Z-0.200000 I2.795528 J13.831429
G02 X1.668314 Y12.840325 Z-0.200000 I10.018927 J9.937026
G02 X2.518744 Y21.002468 Z-0.200000 I13.853908 J2.681908
G02 X7.766974 Y27.311189 Z-0.200000 I13.003476 J-5.480238
G02 X15.638040 Y29.632863 Z-0.200000 I7.755246 J-11.788959
G00 Z5.000000

(End cutting path id: path7241)


(Footer)
M5
G00 X0.0000 Y0.0000
M2
(Using default footer. To add your own footer create file "footer" in the output dir.)
(end)
%