%
(Header)
(Generated by gcodetools from Inkscape.)
(Using default header. To add your own header create file "header" in the output dir.)
M3
(Header end.)
G21 (All units in mm)

(Start cutting path id: path5582)
(Change tool to Cone cutter)

G00 Z5.000000
G00 X31.801480 Y72.272199

G01 Z-0.200000 F100.0(Penetrate)
G01 X29.506554 Y47.752165 Z-0.200000 F400.000000
G01 X8.006509 Y35.741891 Z-0.200000
G01 X30.617273 Y25.982178 Z-0.200000
G01 X35.395846 Y1.823044 Z-0.200000
G01 X51.664994 Y20.311241 Z-0.200000
G01 X76.118359 Y17.390348 Z-0.200000
G01 X76.118359 Y17.390348 Z-0.200000
G01 X63.562479 Y38.576393 Z-0.200000
G01 X73.896920 Y60.930320 Z-0.200000
G01 X49.867812 Y55.535818 Z-0.200000
G01 X31.801480 Y72.272199 Z-0.200000
G01 X31.801480 Y72.272199 Z-0.200000
G00 Z5.000000

(End cutting path id: path5582)


(Start cutting path id: path5580)
(Change tool to Cone cutter)

G00 Z5.000000
G00 X31.801480 Y72.272199

G01 Z-0.200000 F100.0(Penetrate)
G01 X29.506554 Y47.752165 Z-0.200000 F400.000000
G01 X8.006509 Y35.741891 Z-0.200000
G01 X30.617273 Y25.982178 Z-0.200000
G01 X35.395846 Y1.823044 Z-0.200000
G01 X51.664994 Y20.311241 Z-0.200000
G01 X76.118359 Y17.390348 Z-0.200000
G01 X76.118359 Y17.390348 Z-0.200000
G01 X63.562479 Y38.576393 Z-0.200000
G01 X73.896920 Y60.930320 Z-0.200000
G01 X49.867812 Y55.535818 Z-0.200000
G01 X31.801480 Y72.272199 Z-0.200000
G01 X31.801480 Y72.272199 Z-0.200000
G00 Z5.000000

(End cutting path id: path5580)


(Start cutting path id: path5578)
(Change tool to Cone cutter)

G00 Z5.000000
G00 X31.801480 Y72.272199

G01 Z-0.200000 F100.0(Penetrate)
G01 X29.506554 Y47.752165 Z-0.200000 F400.000000
G01 X8.006509 Y35.741891 Z-0.200000
G01 X30.617273 Y25.982178 Z-0.200000
G01 X35.395846 Y1.823044 Z-0.200000
G01 X51.664994 Y20.311241 Z-0.200000
G01 X76.118359 Y17.390348 Z-0.200000
G01 X76.118359 Y17.390348 Z-0.200000
G01 X63.562479 Y38.576393 Z-0.200000
G01 X73.896920 Y60.930320 Z-0.200000
G01 X49.867812 Y55.535818 Z-0.200000
G01 X31.801480 Y72.272199 Z-0.200000
G01 X31.801480 Y72.272199 Z-0.200000
G00 Z5.000000

(End cutting path id: path5578)


(Start cutting path id: path5576)
(Change tool to Cone cutter)

G00 Z5.000000
G00 X31.801480 Y72.272199

G01 Z-0.200000 F100.0(Penetrate)
G01 X29.506554 Y47.752165 Z-0.200000 F400.000000
G01 X8.006509 Y35.741891 Z-0.200000
G01 X30.617273 Y25.982178 Z-0.200000
G01 X35.395846 Y1.823044 Z-0.200000
G01 X51.664994 Y20.311241 Z-0.200000
G01 X76.118359 Y17.390348 Z-0.200000
G01 X76.118359 Y17.390348 Z-0.200000
G01 X63.562479 Y38.576393 Z-0.200000
G01 X73.896920 Y60.930320 Z-0.200000
G01 X49.867812 Y55.535818 Z-0.200000
G01 X31.801480 Y72.272199 Z-0.200000
G01 X31.801480 Y72.272199 Z-0.200000
G00 Z5.000000

(End cutting path id: path5576)


(Start cutting path id: path5574)
(Change tool to Cone cutter)

G00 Z5.000000
G00 X31.801480 Y72.272199

G01 Z-0.200000 F100.0(Penetrate)
G01 X29.506554 Y47.752165 Z-0.200000 F400.000000
G01 X8.006509 Y35.741891 Z-0.200000
G01 X30.617273 Y25.982178 Z-0.200000
G01 X35.395846 Y1.823044 Z-0.200000
G01 X51.664994 Y20.311241 Z-0.200000
G01 X76.118359 Y17.390348 Z-0.200000
G01 X76.118359 Y17.390348 Z-0.200000
G01 X63.562479 Y38.576393 Z-0.200000
G01 X73.896920 Y60.930320 Z-0.200000
G01 X49.867812 Y55.535818 Z-0.200000
G01 X31.801480 Y72.272199 Z-0.200000
G01 X31.801480 Y72.272199 Z-0.200000
G00 Z5.000000

(End cutting path id: path5574)


(Start cutting path id: path5572)
(Change tool to Cone cutter)

G00 Z5.000000
G00 X31.801480 Y72.272199

G01 Z-0.200000 F100.0(Penetrate)
G01 X29.506554 Y47.752165 Z-0.200000 F400.000000
G01 X8.006509 Y35.741891 Z-0.200000
G01 X30.617273 Y25.982178 Z-0.200000
G01 X35.395846 Y1.823044 Z-0.200000
G01 X51.664994 Y20.311241 Z-0.200000
G01 X76.118359 Y17.390348 Z-0.200000
G01 X76.118359 Y17.390348 Z-0.200000
G01 X63.562479 Y38.576393 Z-0.200000
G01 X73.896920 Y60.930320 Z-0.200000
G01 X49.867812 Y55.535818 Z-0.200000
G01 X31.801480 Y72.272199 Z-0.200000
G01 X31.801480 Y72.272199 Z-0.200000
G00 Z5.000000

(End cutting path id: path5572)


(Start cutting path id: path5570)
(Change tool to Cone cutter)

G00 Z5.000000
G00 X31.801480 Y72.272199

G01 Z-0.200000 F100.0(Penetrate)
G01 X29.506554 Y47.752165 Z-0.200000 F400.000000
G01 X8.006509 Y35.741891 Z-0.200000
G01 X30.617273 Y25.982178 Z-0.200000
G01 X35.395846 Y1.823044 Z-0.200000
G01 X51.664994 Y20.311241 Z-0.200000
G01 X76.118359 Y17.390348 Z-0.200000
G01 X76.118359 Y17.390348 Z-0.200000
G01 X63.562479 Y38.576393 Z-0.200000
G01 X73.896920 Y60.930320 Z-0.200000
G01 X49.867812 Y55.535818 Z-0.200000
G01 X31.801480 Y72.272199 Z-0.200000
G01 X31.801480 Y72.272199 Z-0.200000
G00 Z5.000000

(End cutting path id: path5570)


(Start cutting path id: path5568)
(Change tool to Cone cutter)

G00 Z5.000000
G00 X31.801480 Y72.272199

G01 Z-0.200000 F100.0(Penetrate)
G01 X29.506554 Y47.752165 Z-0.200000 F400.000000
G01 X8.006509 Y35.741891 Z-0.200000
G01 X30.617273 Y25.982178 Z-0.200000
G01 X35.395846 Y1.823044 Z-0.200000
G01 X51.664994 Y20.311241 Z-0.200000
G01 X76.118359 Y17.390348 Z-0.200000
G01 X76.118359 Y17.390348 Z-0.200000
G01 X63.562479 Y38.576393 Z-0.200000
G01 X73.896920 Y60.930320 Z-0.200000
G01 X49.867812 Y55.535818 Z-0.200000
G01 X31.801480 Y72.272199 Z-0.200000
G01 X31.801480 Y72.272199 Z-0.200000
G00 Z5.000000

(End cutting path id: path5568)


(Start cutting path id: path5566)
(Change tool to Cone cutter)

G00 Z5.000000
G00 X31.801480 Y72.272199

G01 Z-0.200000 F100.0(Penetrate)
G01 X29.506554 Y47.752165 Z-0.200000 F400.000000
G01 X8.006509 Y35.741891 Z-0.200000
G01 X30.617273 Y25.982178 Z-0.200000
G01 X35.395846 Y1.823044 Z-0.200000
G01 X51.664994 Y20.311241 Z-0.200000
G01 X76.118359 Y17.390348 Z-0.200000
G01 X76.118359 Y17.390348 Z-0.200000
G01 X63.562479 Y38.576393 Z-0.200000
G01 X73.896920 Y60.930320 Z-0.200000
G01 X49.867812 Y55.535818 Z-0.200000
G01 X31.801480 Y72.272199 Z-0.200000
G01 X31.801480 Y72.272199 Z-0.200000
G00 Z5.000000

(End cutting path id: path5566)


(Start cutting path id: path5564)
(Change tool to Cone cutter)

G00 Z5.000000
G00 X31.801480 Y72.272199

G01 Z-0.200000 F100.0(Penetrate)
G01 X29.506554 Y47.752165 Z-0.200000 F400.000000
G01 X8.006509 Y35.741891 Z-0.200000
G01 X30.617273 Y25.982178 Z-0.200000
G01 X35.395846 Y1.823044 Z-0.200000
G01 X51.664994 Y20.311241 Z-0.200000
G01 X76.118359 Y17.390348 Z-0.200000
G01 X76.118359 Y17.390348 Z-0.200000
G01 X63.562479 Y38.576393 Z-0.200000
G01 X73.896920 Y60.930320 Z-0.200000
G01 X49.867812 Y55.535818 Z-0.200000
G01 X31.801480 Y72.272199 Z-0.200000
G01 X31.801480 Y72.272199 Z-0.200000
G00 Z5.000000

(End cutting path id: path5564)


(Start cutting path id: path5562)
(Change tool to Cone cutter)

G00 Z5.000000
G00 X31.801480 Y72.272199

G01 Z-0.200000 F100.0(Penetrate)
G01 X29.506554 Y47.752165 Z-0.200000 F400.000000
G01 X8.006509 Y35.741891 Z-0.200000
G01 X30.617273 Y25.982178 Z-0.200000
G01 X35.395846 Y1.823044 Z-0.200000
G01 X51.664994 Y20.311241 Z-0.200000
G01 X76.118359 Y17.390348 Z-0.200000
G01 X76.118359 Y17.390348 Z-0.200000
G01 X63.562479 Y38.576393 Z-0.200000
G01 X73.896920 Y60.930320 Z-0.200000
G01 X49.867812 Y55.535818 Z-0.200000
G01 X31.801480 Y72.272199 Z-0.200000
G01 X31.801480 Y72.272199 Z-0.200000
G00 Z5.000000

(End cutting path id: path5562)


(Start cutting path id: path5560)
(Change tool to Cone cutter)

G00 Z5.000000
G00 X31.801480 Y72.272199

G01 Z-0.200000 F100.0(Penetrate)
G01 X29.506554 Y47.752165 Z-0.200000 F400.000000
G01 X8.006509 Y35.741891 Z-0.200000
G01 X30.617273 Y25.982178 Z-0.200000
G01 X35.395846 Y1.823044 Z-0.200000
G01 X51.664994 Y20.311241 Z-0.200000
G01 X76.118359 Y17.390348 Z-0.200000
G01 X76.118359 Y17.390348 Z-0.200000
G01 X63.562479 Y38.576393 Z-0.200000
G01 X73.896920 Y60.930320 Z-0.200000
G01 X49.867812 Y55.535818 Z-0.200000
G01 X31.801480 Y72.272199 Z-0.200000
G01 X31.801480 Y72.272199 Z-0.200000
G00 Z5.000000

(End cutting path id: path5560)


(Start cutting path id: path5546)
(Change tool to Cone cutter)

G00 Z5.000000
G00 X33.011731 Y69.106659

G01 Z-0.200000 F100.0(Penetrate)
G01 X30.999797 Y47.612570 Z-0.200000 F400.000000
G02 X30.763240 Y46.933731 Z-0.200000 I-1.493617 J0.139850
G02 X30.238017 Y46.442891 Z-0.200000 I-1.257060 J0.818689
G01 X11.391415 Y35.914679 Z-0.200000
G01 X31.211464 Y27.359267 Z-0.200000
G02 X31.784255 Y26.924627 Z-0.200000 I-0.593994 J-1.377542
G02 X32.088997 Y26.273372 Z-0.200000 I-1.166785 J-0.942902
G01 X36.277683 Y5.096229 Z-0.200000
G01 X50.538725 Y21.301963 Z-0.200000
G02 X51.129234 Y21.712375 Z-0.200000 I1.126452 J-0.990735
G02 X51.842899 Y21.800813 Z-0.200000 I0.535943 J-1.401148
G01 X73.278560 Y19.240417 Z-0.200000
G01 X62.271893 Y37.811410 Z-0.200000
G02 X62.064184 Y38.499919 Z-0.200000 I1.290494 J0.764902
G02 X62.200785 Y39.205985 Z-0.200000 I1.498204 J0.076393
G01 X71.260008 Y58.801137 Z-0.200000
G01 X50.196420 Y54.072261 Z-0.200000
G02 X49.477738 Y54.087592 Z-0.200000 I-0.328279 J1.463791
G02 X48.848699 Y54.435512 Z-0.200000 I0.390403 J1.448460
G01 X33.011731 Y69.106659 Z-0.200000
G01 X33.011731 Y69.106659 Z-0.200000
G00 Z5.000000

(End cutting path id: path5546)


(Start cutting path id: path5548)
(Change tool to Cone cutter)

G00 Z5.000000
G00 X35.190134 Y63.407644

G01 Z-0.200000 F100.0(Penetrate)
G01 X33.688074 Y47.360664 Z-0.200000 F400.000000
G02 X33.025665 Y45.459753 Z-0.200000 I-4.182138 J0.391476
G02 X31.554869 Y44.085342 Z-0.200000 I-3.519729 J2.292387
G01 X17.483998 Y36.225563 Z-0.200000
G01 X32.281924 Y29.838081 Z-0.200000
G02 X33.885040 Y28.620597 Z-0.200000 I-1.664865 J-3.856391
G02 X34.737588 Y26.797027 Z-0.200000 I-3.267981 J-2.638907
G01 X37.864633 Y10.986517 Z-0.200000
G01 X48.511906 Y23.085695 Z-0.200000
G02 X50.165289 Y24.234139 Z-0.200000 I3.153144 J-2.775105
G02 X52.163156 Y24.481371 Z-0.200000 I1.499762 J-3.923550
G01 X68.166590 Y22.569758 Z-0.200000
G01 X59.949072 Y36.435026 Z-0.200000
G02 X59.367833 Y38.362322 Z-0.200000 I3.613735 J2.141133
G02 X59.750083 Y40.338732 Z-0.200000 I4.194973 J0.213836
G01 X66.513493 Y54.967986 Z-0.200000
G01 X50.787873 Y51.438004 Z-0.200000
G02 X48.775283 Y51.480739 Z-0.200000 I-0.919723 J4.098492
G02 X47.013701 Y52.454995 Z-0.200000 I1.092867 J4.055758
G01 X35.190134 Y63.407644 Z-0.200000
G01 X35.190134 Y63.407644 Z-0.200000
G00 Z5.000000

(End cutting path id: path5548)


(Start cutting path id: path5550)
(Change tool to Cone cutter)

G00 Z5.000000
G00 X37.368537 Y57.709180

G01 Z-0.200000 F100.0(Penetrate)
G01 X36.376351 Y47.109311 Z-0.200000 F400.000000
G02 X35.288092 Y43.986329 Z-0.200000 I-6.870658 J0.643100
G02 X32.871723 Y41.728346 Z-0.200000 I-5.782400 J3.766082
G01 X23.577131 Y36.536451 Z-0.200000
G01 X33.351831 Y32.317449 Z-0.200000
G02 X35.985585 Y30.317218 Z-0.200000 I-2.735134 J-6.335500
G02 X37.386176 Y27.321232 Z-0.200000 I-5.368888 J-4.335269
G01 X39.452133 Y16.876806 Z-0.200000
G01 X46.485088 Y24.869427 Z-0.200000
G02 X49.201264 Y26.756205 Z-0.200000 I5.180277 J-4.558975
G02 X52.483411 Y27.162482 Z-0.200000 I2.464100 J-6.445753
G01 X63.054620 Y25.899648 Z-0.200000
G01 X57.626801 Y35.058642 Z-0.200000
G02 X56.671609 Y38.224930 Z-0.200000 I5.936522 J3.518128
G02 X57.299381 Y41.472032 Z-0.200000 I6.891714 J0.351840
G01 X61.766981 Y51.135386 Z-0.200000
G01 X51.379326 Y48.803195 Z-0.200000
G02 X48.072829 Y48.873335 Z-0.200000 I-1.511163 J6.733194
G02 X45.178707 Y50.473928 Z-0.200000 I1.795334 J6.663054
G01 X37.368537 Y57.709180 Z-0.200000
G01 X37.368537 Y57.709180 Z-0.200000
G00 Z5.000000

(End cutting path id: path5550)


(Start cutting path id: path5552)
(Change tool to Cone cutter)

G00 Z5.000000
G00 X39.546939 Y52.010715

G01 Z-0.200000 F100.0(Penetrate)
G01 X39.064627 Y46.857405 Z-0.200000 F400.000000
G02 X37.550395 Y42.512663 Z-0.200000 I-9.559124 J0.895310
G02 X34.188575 Y39.371351 Z-0.200000 I-8.044892 J5.240052
G01 X29.670265 Y36.847336 Z-0.200000
G01 X34.421742 Y34.796263 Z-0.200000
G02 X38.086133 Y32.013286 Z-0.200000 I-3.805404 J-8.814609
G02 X40.034766 Y27.844887 Z-0.200000 I-7.469795 J-6.031632
G01 X41.039079 Y22.767644 Z-0.200000
G01 X44.458269 Y26.653158 Z-0.200000
G02 X48.237241 Y29.278271 Z-0.200000 I7.207410 J-6.342844
G02 X52.803668 Y29.843593 Z-0.200000 I3.428438 J-8.967957
G01 X57.942097 Y29.229540 Z-0.200000
G01 X55.303979 Y33.681705 Z-0.200000
G02 X53.975111 Y38.087052 Z-0.200000 I8.259618 J4.894603
G02 X54.848676 Y42.604779 Z-0.200000 I9.588486 J0.489256
G01 X57.020466 Y47.302786 Z-0.200000
G01 X51.970782 Y46.168938 Z-0.200000
G02 X47.370377 Y46.266481 Z-0.200000 I-2.102607 J9.367896
G02 X43.343712 Y48.493411 Z-0.200000 I2.497798 J9.270353
G01 X39.546939 Y52.010715 Z-0.200000
G01 X39.546939 Y52.010715 Z-0.200000
G00 Z5.000000

(End cutting path id: path5552)


(Start cutting path id: path5554)
(Change tool to Cone cutter)

G00 Z5.000000
G00 X41.713768 Y46.335404

G01 Z-0.200000 F100.0(Penetrate)
G02 X39.804050 Y41.042901 Z-0.200000 I-12.219192 J1.418310 F400.000000
G02 X35.737493 Y37.154362 Z-0.200000 I-10.309473 J6.710813
G02 X40.180451 Y33.702346 Z-0.200000 I-5.125803 J-11.182414
G02 X42.621618 Y28.633125 Z-0.200000 I-9.568762 J-7.730398
G02 X47.277932 Y31.792170 Z-0.200000 I9.051371 J-8.330243
G02 X52.853827 Y32.547305 Z-0.200000 I4.395056 J-11.489288
G02 X51.288017 Y37.951925 Z-0.200000 I10.719272 J6.034687
G02 X52.292691 Y43.488377 Z-0.200000 I12.285083 J0.630067
G02 X46.668795 Y43.669206 Z-0.200000 I-2.427101 J12.059413
G02 X41.713768 Y46.335404 Z-0.200000 I3.196795 J11.878584
G01 X41.713768 Y46.335404 Z-0.200000
G00 Z5.000000

(End cutting path id: path5554)


(Start cutting path id: path5556)
(Change tool to Cone cutter)

G00 Z5.000000
G00 X43.371824 Y42.033169

G01 Z-0.200000 F100.0(Penetrate)
G02 X42.071706 Y39.576504 Z-0.200000 I-13.852231 J5.758533 F400.000000
G02 X40.340689 Y37.401857 Z-0.200000 I-12.552113 J8.215197
G02 X42.275537 Y35.406034 Z-0.200000 I-9.757168 J-11.394852
G02 X43.808938 Y33.087495 Z-0.200000 I-11.692016 J-9.399030
G02 X46.305160 Y34.311116 Z-0.200000 I7.822649 J-12.800436
G02 X48.984298 Y35.053130 Z-0.200000 I5.326428 J-14.024056
G02 X48.591767 Y37.804883 Z-0.200000 I14.591026 J3.485250
G02 X48.713650 Y40.581819 Z-0.200000 I14.983557 J0.733497
G02 X45.975215 Y41.058972 Z-0.200000 I1.194817 J14.953843
G02 X43.371824 Y42.033169 Z-0.200000 I3.933252 J14.476689
G01 X43.371824 Y42.033169 Z-0.200000
G00 Z5.000000

(End cutting path id: path5556)


(Start cutting path id: path5558)
(Change tool to Cone cutter)

G00 Z5.000000
G00 X44.652847 Y38.636579

G01 Z-0.200000 F100.0(Penetrate)
G02 X44.319545 Y38.097138 Z-0.200000 I-15.223388 J9.033333 F400.000000
G02 X43.967135 Y37.569980 Z-0.200000 I-14.890085 J9.572774
G02 X44.377205 Y37.086583 Z-0.200000 I-13.291727 J-11.691135
G02 X44.769704 Y36.588814 Z-0.200000 I-13.701797 J-11.207738
G02 X45.356221 Y36.828971 Z-0.200000 I6.999876 J-16.258979
G02 X45.950960 Y37.047979 Z-0.200000 I6.413359 J-16.499136
G02 X45.903513 Y37.680401 Z-0.200000 I17.625605 J1.640337
G02 X45.878750 Y38.314118 Z-0.200000 I17.673052 J1.007914
G02 X45.262912 Y38.464372 Z-0.200000 I3.887255 J17.269681
G02 X44.652847 Y38.636579 Z-0.200000 I4.503094 J17.119427
G01 X44.652847 Y38.636579 Z-0.200000
G00 Z5.000000

(End cutting path id: path5558)


(Footer)
M5
G00 X0.0000 Y0.0000
M2
(Using default footer. To add your own footer create file "footer" in the output dir.)
(end)
%